svg/FoundationIcons/fi-social-linkedin.svg

<svg xmlns="http://www.w3.org/2000/svg" viewBox="0 0 100 100" enable-background="new 0 0 100 100"><path d="m80.67 14h-61.35c-2.934 0-5.315 2.325-5.315 5.188v61.62c0 2.867 2.381 5.195 5.315 5.195h61.35c2.936 0 5.333-2.328 5.333-5.195v-61.62c0-2.863-2.397-5.188-5.333-5.188m-45.31 61.35h-10.684v-34.36h10.684v34.36m-5.342-39.06c-3.423 0-6.19-2.774-6.19-6.194 0-3.415 2.767-6.189 6.19-6.189 3.415 0 6.189 2.774 6.189 6.189 0 3.42-2.774 6.194-6.189 6.194m45.34 39.06h-10.667v-16.708c0-3.986-.078-9.111-5.551-9.111-5.558 0-6.405 4.341-6.405 8.822v16.998h-10.675v-34.36h10.245v4.692h.146c1.426-2.7 4.91-5.549 10.11-5.549 10.806 0 12.802 7.114 12.802 16.369v18.847z"/></svg>

<?xml version="1.0" encoding="utf-8"?>
<!-- Generator: Adobe Illustrator 17.0.0, SVG Export Plug-In . SVG Version: 6.00 Build 0)  -->
<!DOCTYPE svg PUBLIC "-//W3C//DTD SVG 1.1//EN" "http://www.w3.org/Graphics/SVG/1.1/DTD/svg11.dtd">
<svg version="1.1" id="Layer_1" xmlns="http://www.w3.org/2000/svg" xmlns:xlink="http://www.w3.org/1999/xlink" x="0px" y="0px"
	 width="100px" height="100px" viewBox="0 0 100 100" enable-background="new 0 0 100 100" xml:space="preserve">
<g>
	<path d="M80.667,14H19.315C16.381,14,14,16.325,14,19.188v61.617C14,83.672,16.381,86,19.315,86h61.352
		C83.603,86,86,83.672,86,80.805V19.188C86,16.325,83.603,14,80.667,14z M35.354,75.354H24.67V40.995h10.684V75.354z M30.012,36.297
		c-3.423,0-6.19-2.774-6.19-6.194c0-3.415,2.767-6.189,6.19-6.189c3.415,0,6.189,2.774,6.189,6.189
		C36.201,33.523,33.427,36.297,30.012,36.297z M75.35,75.354H64.683V58.646c0-3.986-0.078-9.111-5.551-9.111
		c-5.558,0-6.405,4.341-6.405,8.822v16.998H42.052V40.995h10.245v4.692h0.146c1.426-2.7,4.91-5.549,10.106-5.549
		c10.806,0,12.802,7.114,12.802,16.369V75.354z"/>
</g>
</svg>
